svgs/star.svg

<svg width="13" height="12" viewBox="0 0 13 12" fill="none" xmlns="http://www.w3.org/2000/svg">
<path d="M6.5 12L6.32463 10.6768C6.01422 8.33135 4.16865 6.48671 1.82323 6.17537L0.5 6L1.82323 5.82463C4.16865 5.51422 6.01329 3.66865 6.32463 1.32323L6.5 0L6.67537 1.32323C6.98578 3.66865 8.83135 5.51328 11.1768 5.82463L12.5 6L11.1768 6.17537C8.83135 6.48578 6.98671 8.33135 6.67537 10.6768L6.5 12Z" />
</svg>

<svg xmlns="http://www.w3.org/2000/svg" width="13" height="12" fill="none"><path d="m6.5 12-.175-1.323a5.234 5.234 0 0 0-4.502-4.502L.5 6l1.323-.175a5.234 5.234 0 0 0 4.502-4.502L6.5 0l.175 1.323a5.234 5.234 0 0 0 4.502 4.502L12.5 6l-1.323.175a5.234 5.234 0 0 0-4.502 4.502z"/></svg>
